X: 28505
T: Munster Bank, The
R: polka
M: 2/4
K: Amajor
|:A>F EF|AB ce|fe c2|B/c/B/A/ F2|
cA/F/ EF|AB ce|fe ce/c/|BA A2:|
|:fe ce|fe e2|a>f ec|BA F2|
A>F EF|AB c/c/e|fe c2|BA A2:|

